packages/foundations/assets/icons/functional/images/environment/snow_flake_24.svg

<svg width="24" height="24" viewBox="0 0 24 24" fill="none" xmlns="http://www.w3.org/2000/svg">
<g clip-path="url(#clip0_185_841)">
<path fill-rule="evenodd" clip-rule="evenodd" d="M12.0002 2.125C12.4463 2.125 12.8833 2.49141 12.8752 3L12.8746 4.744L13.9529 3.667C14.2946 3.32529 14.8486 3.32529 15.1903 3.667C15.5036 3.98023 15.5464 4.51889 15.1903 4.90443L12.8746 7.219V10.484L15.9166 8.728L16.707 5.78008C16.8321 5.31329 17.3119 5.03628 17.7787 5.16136C18.2065 5.27601 18.5267 5.70316 18.3974 6.23301L18.0596 7.491L19.3569 6.74223C19.7754 6.5006 20.3106 6.64399 20.5522 7.0625C20.7752 7.44881 20.6593 7.96573 20.2898 8.22227L18.6626 9.163L20.3501 9.6152C20.8169 9.74028 21.0939 10.2201 20.9688 10.6869C20.8542 11.1147 20.416 11.4174 19.9699 11.3251L16.5196 10.4L13.7486 12L16.9476 13.846L19.8972 13.0569C20.3639 12.9318 20.8437 13.2088 20.9688 13.6756C21.0835 14.1035 20.8399 14.6204 20.3501 14.7472L19.0916 15.084L20.2319 15.7422C20.6504 15.9839 20.7938 16.519 20.5522 16.9375C20.3292 17.3238 19.8177 17.5164 19.3569 17.2578L17.9446 16.442L18.3974 18.1294C18.5224 18.5962 18.2454 19.076 17.7787 19.2011C17.3508 19.3157 16.8468 19.0855 16.707 18.5824L15.8016 15.205L12.8746 13.515V17.142L15.1903 19.458C15.5321 19.7997 15.5321 20.3537 15.1903 20.6954C14.8771 21.0087 14.3399 21.0669 13.9529 20.6954L12.8746 19.617L12.8752 21C12.8752 21.4832 12.4834 21.875 12.0002 21.875C11.5541 21.875 11.132 21.5166 11.132 21L11.1246 19.617L10.0475 20.6954C9.70578 21.0371 9.15176 21.0371 8.81005 20.6954C8.49682 20.3822 8.44238 19.8282 8.81005 19.458L11.1246 17.142V13.515L8.19756 15.205L7.29339 18.5824C7.16831 19.0491 6.68852 19.3262 6.22174 19.2011C5.79385 19.0864 5.46779 18.6214 5.60302 18.1294L6.05456 16.442L4.64347 17.2578C4.22496 17.4994 3.68982 17.356 3.4482 16.9375C3.22516 16.5512 3.31546 16.0188 3.76847 15.7422L4.90656 15.084L3.65031 14.7472C3.18353 14.6222 2.90652 14.1424 3.03159 13.6756C3.14624 13.2477 3.60638 12.9244 4.10324 13.0569L7.05156 13.846L10.2506 11.999L7.47956 10.4L4.10324 11.3056C3.63646 11.4306 3.15666 11.1536 3.03159 10.6869C2.91694 10.259 3.12771 9.77396 3.65031 9.6152L5.33656 9.163L3.76847 8.25777C3.34996 8.01615 3.20657 7.48101 3.4482 7.0625C3.67123 6.67619 4.1694 6.48898 4.64347 6.74223L5.93956 7.491L5.60302 6.23301C5.47794 5.76623 5.75495 5.28643 6.22174 5.16136C6.64962 5.04671 7.12567 5.25264 7.29339 5.78008L8.08256 8.728L11.1246 10.484V7.219L8.81005 4.90443C8.46834 4.56272 8.46834 4.0087 8.81005 3.667C9.12328 3.35376 9.61851 3.30241 10.0249 3.63992L11.1246 4.744L11.1252 3C11.1252 2.51675 11.5169 2.125 12.0002 2.125Z" fill="#1A1C1F"/>
</g>
<defs>
<clipPath id="clip0_185_841">
<rect width="24" height="24" fill="white"/>
</clipPath>
</defs>
</svg>

<svg xmlns="http://www.w3.org/2000/svg" width="24" height="24" fill="none"><g clip-path="url(#a)"><path fill="#1A1C1F" fill-rule="evenodd" d="M12 2.125c.446 0 .883.366.875.875v1.744l1.078-1.077a.875.875 0 0 1 1.237 0 .887.887 0 0 1 0 1.237L12.875 7.22v3.265l3.042-1.756.79-2.948a.875.875 0 0 1 1.072-.619.87.87 0 0 1 .618 1.072l-.337 1.258 1.297-.749a.875.875 0 0 1 1.195.32.89.89 0 0 1-.262 1.16l-1.627.941 1.687.452a.875.875 0 0 1 .619 1.072c-.115.428-.553.73-1 .638l-3.45-.925-2.77 1.6 3.199 1.846 2.95-.79a.875.875 0 0 1 1.07.62c.116.428-.128.944-.618 1.071l-1.258.337 1.14.658a.875.875 0 0 1-.875 1.516l-1.412-.816.452 1.687a.875.875 0 0 1-1.69.453l-.905-3.377-2.927-1.69v3.627l2.315 2.316a.875.875 0 1 1-1.237 1.237l-1.078-1.078V21a.871.871 0 1 1-1.743 0l-.007-1.383-1.078 1.078a.875.875 0 0 1-1.237-1.237l2.315-2.316v-3.627l-2.927 1.69-.905 3.377a.875.875 0 0 1-1.071.62c-.428-.116-.754-.58-.619-1.073l.452-1.687-1.412.816a.875.875 0 0 1-.875-1.516l1.139-.658-1.257-.337a.875.875 0 1 1 .453-1.69l2.949.789 3.199-1.847L7.48 10.4l-3.377.906a.875.875 0 0 1-.453-1.69l1.687-.453-1.569-.905a.875.875 0 1 1 .875-1.516l1.297.749-.337-1.258a.875.875 0 0 1 .619-1.072c.428-.114.904.092 1.071.62l.79 2.947 3.042 1.756V7.219L8.81 4.904a.875.875 0 0 1 0-1.237c.313-.313.809-.365 1.215-.027l1.1 1.104V3c0-.483.392-.875.875-.875" clip-rule="evenodd"/></g><defs><clipPath id="a"><path fill="#fff" d="M0 0h24v24H0z"/></clipPath></defs></svg>
